images/6603746.svg

<?xml version="1.0" encoding="UTF-8"?>
<svg xmlns="http://www.w3.org/2000/svg" xmlns:xlink="http://www.w3.org/1999/xlink" width="300pt" height="300pt" viewBox="0 0 300 300" version="1.1">
<defs>
<g>
<symbol overflow="visible" id="glyph0-0">
<path style="stroke:none;" d="M 0.640625 2.296875 L 0.640625 -9.171875 L 7.140625 -9.171875 L 7.140625 2.296875 Z M 1.375 1.578125 L 6.421875 1.578125 L 6.421875 -8.4375 L 1.375 -8.4375 Z M 1.375 1.578125 "/>
</symbol>
<symbol overflow="visible" id="glyph0-1">
<path style="stroke:none;" d="M 5.125 -8.609375 C 4.1875 -8.609375 3.441406 -8.257812 2.890625 -7.5625 C 2.347656 -6.875 2.078125 -5.929688 2.078125 -4.734375 C 2.078125 -3.535156 2.347656 -2.585938 2.890625 -1.890625 C 3.441406 -1.203125 4.1875 -0.859375 5.125 -0.859375 C 6.050781 -0.859375 6.785156 -1.203125 7.328125 -1.890625 C 7.878906 -2.585938 8.15625 -3.535156 8.15625 -4.734375 C 8.15625 -5.929688 7.878906 -6.875 7.328125 -7.5625 C 6.785156 -8.257812 6.050781 -8.609375 5.125 -8.609375 Z M 5.125 -9.65625 C 6.445312 -9.65625 7.503906 -9.207031 8.296875 -8.3125 C 9.097656 -7.414062 9.5 -6.222656 9.5 -4.734375 C 9.5 -3.234375 9.097656 -2.035156 8.296875 -1.140625 C 7.503906 -0.253906 6.445312 0.1875 5.125 0.1875 C 3.789062 0.1875 2.722656 -0.253906 1.921875 -1.140625 C 1.128906 -2.035156 0.734375 -3.234375 0.734375 -4.734375 C 0.734375 -6.222656 1.128906 -7.414062 1.921875 -8.3125 C 2.722656 -9.207031 3.789062 -9.65625 5.125 -9.65625 Z M 5.125 -9.65625 "/>
</symbol>
<symbol overflow="visible" id="glyph0-2">
<path style="stroke:none;" d="M 1.28125 -9.484375 L 3 -9.484375 L 7.203125 -1.546875 L 7.203125 -9.484375 L 8.453125 -9.484375 L 8.453125 0 L 6.71875 0 L 2.515625 -7.921875 L 2.515625 0 L 1.28125 0 Z M 1.28125 -9.484375 "/>
</symbol>
<symbol overflow="visible" id="glyph0-3">
<path style="stroke:none;" d="M 1.28125 -9.484375 L 2.5625 -9.484375 L 2.5625 -5.59375 L 7.21875 -5.59375 L 7.21875 -9.484375 L 8.5 -9.484375 L 8.5 0 L 7.21875 0 L 7.21875 -4.515625 L 2.5625 -4.515625 L 2.5625 0 L 1.28125 0 Z M 1.28125 -9.484375 "/>
</symbol>
</g>
</defs>
<g id="surface42869">
<rect x="0" y="0" width="300" height="300" style="fill:rgb(100%,100%,100%);fill-opacity:1;stroke:none;"/>
<path style="fill:none;stroke-width:1.2;stroke-linecap:butt;stroke-linejoin:miter;stroke:rgb(0%,0%,0%);stroke-opacity:1;stroke-miterlimit:10;" d="M 176.003906 252.246094 L 177.191406 218.507812 "/>
<path style="fill:none;stroke-width:1.2;stroke-linecap:butt;stroke-linejoin:miter;stroke:rgb(0%,0%,0%);stroke-opacity:1;stroke-miterlimit:10;" d="M 177.191406 218.507812 L 148.566406 200.609375 "/>
<path style="fill:none;stroke-width:1.2;stroke-linecap:butt;stroke-linejoin:miter;stroke:rgb(0%,0%,0%);stroke-opacity:1;stroke-miterlimit:10;" d="M 148.566406 200.609375 L 149.75 166.871094 "/>
<path style="fill:none;stroke-width:1.2;stroke-linecap:butt;stroke-linejoin:miter;stroke:rgb(0%,0%,0%);stroke-opacity:1;stroke-miterlimit:10;" d="M 149.75 166.871094 L 135.4375 157.921875 "/>
<path style="fill:none;stroke-width:1.2;stroke-linecap:butt;stroke-linejoin:miter;stroke:rgb(100%,0%,0%);stroke-opacity:1;stroke-miterlimit:10;" d="M 135.4375 157.921875 L 121.125 148.972656 "/>
<path style="fill:none;stroke-width:1.2;stroke-linecap:butt;stroke-linejoin:miter;stroke:rgb(100%,0%,0%);stroke-opacity:1;stroke-miterlimit:10;" d="M 121.125 148.972656 L 121.71875 132.101562 "/>
<path style="fill:none;stroke-width:1.2;stroke-linecap:butt;stroke-linejoin:miter;stroke:rgb(0%,0%,0%);stroke-opacity:1;stroke-miterlimit:10;" d="M 121.71875 132.101562 L 122.3125 115.234375 "/>
<path style=" stroke:none;fill-rule:nonzero;fill:rgb(100%,100%,100%);fill-opacity:1;" d="M 116.125 140.972656 L 127.125 140.972656 L 127.125 156.972656 L 116.125 156.972656 Z M 116.125 140.972656 "/>
<g style="fill:rgb(100%,0%,0%);fill-opacity:1;">
  <use xlink:href="#glyph0-1" x="116.125" y="153.348633"/>
</g>
<path style="fill:none;stroke-width:1.2;stroke-linecap:butt;stroke-linejoin:miter;stroke:rgb(0%,0%,0%);stroke-opacity:1;stroke-miterlimit:10;" d="M 122.3125 115.234375 L 93.6875 97.335938 "/>
<path style="fill:none;stroke-width:1.2;stroke-linecap:butt;stroke-linejoin:miter;stroke:rgb(0%,0%,0%);stroke-opacity:1;stroke-miterlimit:10;" d="M 123.664062 106.707031 L 100.761719 92.390625 "/>
<path style="fill:none;stroke-width:1.2;stroke-linecap:butt;stroke-linejoin:miter;stroke:rgb(0%,0%,0%);stroke-opacity:1;stroke-miterlimit:10;" d="M 152.125 99.390625 L 122.3125 115.234375 "/>
<path style="fill:none;stroke-width:1.2;stroke-linecap:butt;stroke-linejoin:miter;stroke:rgb(0%,0%,0%);stroke-opacity:1;stroke-miterlimit:10;" d="M 93.6875 97.335938 L 94.875 63.597656 "/>
<path style="fill:none;stroke-width:1.2;stroke-linecap:butt;stroke-linejoin:miter;stroke:rgb(0%,0%,0%);stroke-opacity:1;stroke-miterlimit:10;" d="M 93.6875 97.335938 L 78.78125 105.257812 "/>
<path style="fill:none;stroke-width:1.2;stroke-linecap:butt;stroke-linejoin:miter;stroke:rgb(100%,0%,0%);stroke-opacity:1;stroke-miterlimit:10;" d="M 78.78125 105.257812 L 63.875 113.175781 "/>
<path style="fill:none;stroke-width:1.2;stroke-linecap:butt;stroke-linejoin:miter;stroke:rgb(0%,0%,0%);stroke-opacity:1;stroke-miterlimit:10;" d="M 94.875 63.597656 L 124.6875 47.753906 "/>
<path style="fill:none;stroke-width:1.2;stroke-linecap:butt;stroke-linejoin:miter;stroke:rgb(0%,0%,0%);stroke-opacity:1;stroke-miterlimit:10;" d="M 101.582031 69.027344 L 125.433594 56.351562 "/>
<path style="fill:none;stroke-width:1.2;stroke-linecap:butt;stroke-linejoin:miter;stroke:rgb(0%,0%,0%);stroke-opacity:1;stroke-miterlimit:10;" d="M 124.6875 47.753906 L 153.3125 65.652344 "/>
<path style="fill:none;stroke-width:1.2;stroke-linecap:butt;stroke-linejoin:miter;stroke:rgb(0%,0%,0%);stroke-opacity:1;stroke-miterlimit:10;" d="M 153.3125 65.652344 L 152.125 99.390625 "/>
<path style="fill:none;stroke-width:1.2;stroke-linecap:butt;stroke-linejoin:miter;stroke:rgb(0%,0%,0%);stroke-opacity:1;stroke-miterlimit:10;" d="M 145.253906 68.746094 L 144.304688 95.738281 "/>
<path style="fill:none;stroke-width:1.2;stroke-linecap:butt;stroke-linejoin:miter;stroke:rgb(0%,0%,0%);stroke-opacity:1;stroke-miterlimit:10;" d="M 153.3125 65.652344 L 183.125 49.808594 "/>
<path style="fill:none;stroke-width:1;stroke-linecap:butt;stroke-linejoin:miter;stroke:rgb(0%,0%,0%);stroke-opacity:1;stroke-miterlimit:10;" d="M 211.75 67.707031 L 211.75 67.707031 M 209.523438 65.699219 L 208.96875 66.582031 M 207.292969 63.691406 L 206.1875 65.460938 M 205.066406 61.683594 L 203.40625 64.335938 M 202.835938 59.675781 L 200.625 63.210938 M 200.609375 57.667969 L 197.84375 62.085938 M 198.378906 55.660156 L 195.0625 60.964844 M 196.152344 53.648438 L 192.28125 59.839844 M 193.921875 51.640625 L 189.5 58.714844 M 191.695312 49.632812 L 186.71875 57.589844 M 189.464844 47.625 L 183.9375 56.464844 M 187.234375 45.617188 L 181.15625 55.34375 M 186.285156 44.757812 L 179.96875 54.863281 "/>
<path style="fill:none;stroke-width:1.2;stroke-linecap:butt;stroke-linejoin:miter;stroke:rgb(0%,0%,0%);stroke-opacity:1;stroke-miterlimit:10;" d="M 211.75 67.707031 L 243.054688 55.070312 "/>
<path style="fill:none;stroke-width:1.2;stroke-linecap:butt;stroke-linejoin:miter;stroke:rgb(0%,0%,100%);stroke-opacity:1;stroke-miterlimit:10;" d="M 214.097656 101.386719 L 212.925781 84.546875 "/>
<path style="fill:none;stroke-width:1.2;stroke-linecap:butt;stroke-linejoin:miter;stroke:rgb(0%,0%,0%);stroke-opacity:1;stroke-miterlimit:10;" d="M 212.925781 84.546875 L 211.75 67.707031 "/>
<path style="fill:none;stroke-width:1.2;stroke-linecap:butt;stroke-linejoin:miter;stroke:rgb(0%,0%,0%);stroke-opacity:1;stroke-miterlimit:10;" d="M 243.054688 55.070312 L 253.902344 68.003906 "/>
<path style="fill:none;stroke-width:1.2;stroke-linecap:butt;stroke-linejoin:miter;stroke:rgb(0%,0%,100%);stroke-opacity:1;stroke-miterlimit:10;" d="M 253.902344 68.003906 L 264.75 80.9375 "/>
<path style="fill:none;stroke-width:1.2;stroke-linecap:butt;stroke-linejoin:miter;stroke:rgb(0%,0%,100%);stroke-opacity:1;stroke-miterlimit:10;" d="M 264.75 80.9375 L 255.800781 95.25 "/>
<path style="fill:none;stroke-width:1.2;stroke-linecap:butt;stroke-linejoin:miter;stroke:rgb(0%,0%,0%);stroke-opacity:1;stroke-miterlimit:10;" d="M 255.800781 95.25 L 246.851562 109.5625 "/>
<path style=" stroke:none;fill-rule:nonzero;fill:rgb(100%,100%,100%);fill-opacity:1;" d="M 254.75 72.9375 L 274.75 72.9375 L 274.75 88.9375 L 254.75 88.9375 Z M 254.75 72.9375 "/>
<g style="fill:rgb(0%,0%,100%);fill-opacity:1;">
  <use xlink:href="#glyph0-2" x="254.75" y="85.313477"/>
  <use xlink:href="#glyph0-3" x="264.719727" y="85.313477"/>
</g>
<path style="fill:none;stroke-width:1.2;stroke-linecap:butt;stroke-linejoin:miter;stroke:rgb(0%,0%,0%);stroke-opacity:1;stroke-miterlimit:10;" d="M 243.167969 111.050781 L 249.488281 126.703125 "/>
<path style="fill:none;stroke-width:1.2;stroke-linecap:butt;stroke-linejoin:miter;stroke:rgb(100%,0%,0%);stroke-opacity:1;stroke-miterlimit:10;" d="M 249.488281 126.703125 L 255.808594 142.355469 "/>
<path style="fill:none;stroke-width:1.2;stroke-linecap:butt;stroke-linejoin:miter;stroke:rgb(0%,0%,0%);stroke-opacity:1;stroke-miterlimit:10;" d="M 250.535156 108.074219 L 256.855469 123.726562 "/>
<path style="fill:none;stroke-width:1.2;stroke-linecap:butt;stroke-linejoin:miter;stroke:rgb(100%,0%,0%);stroke-opacity:1;stroke-miterlimit:10;" d="M 256.855469 123.726562 L 263.175781 139.378906 "/>
<path style="fill:none;stroke-width:1.2;stroke-linecap:butt;stroke-linejoin:miter;stroke:rgb(0%,0%,0%);stroke-opacity:1;stroke-miterlimit:10;" d="M 246.851562 109.5625 L 230.476562 105.472656 "/>
<path style="fill:none;stroke-width:1.2;stroke-linecap:butt;stroke-linejoin:miter;stroke:rgb(0%,0%,100%);stroke-opacity:1;stroke-miterlimit:10;" d="M 230.476562 105.472656 L 214.097656 101.386719 "/>
<path style=" stroke:none;fill-rule:nonzero;fill:rgb(100%,100%,100%);fill-opacity:1;" d="M 254.492188 132.867188 L 265.492188 132.867188 L 265.492188 148.867188 L 254.492188 148.867188 Z M 254.492188 132.867188 "/>
<g style="fill:rgb(100%,0%,0%);fill-opacity:1;">
  <use xlink:href="#glyph0-1" x="254.492188" y="145.243164"/>
</g>
<path style=" stroke:none;fill-rule:nonzero;fill:rgb(100%,100%,100%);fill-opacity:1;" d="M 204.097656 93.386719 L 224.097656 93.386719 L 224.097656 109.386719 L 204.097656 109.386719 Z M 204.097656 93.386719 "/>
<g style="fill:rgb(0%,0%,100%);fill-opacity:1;">
  <use xlink:href="#glyph0-2" x="204.097656" y="105.762695"/>
  <use xlink:href="#glyph0-3" x="214.067383" y="105.762695"/>
</g>
<path style="fill:none;stroke-width:1.2;stroke-linecap:butt;stroke-linejoin:miter;stroke:rgb(100%,0%,0%);stroke-opacity:1;stroke-miterlimit:10;" d="M 63.875 113.175781 L 49.5625 104.226562 "/>
<path style="fill:none;stroke-width:1.2;stroke-linecap:butt;stroke-linejoin:miter;stroke:rgb(0%,0%,0%);stroke-opacity:1;stroke-miterlimit:10;" d="M 49.5625 104.226562 L 35.25 95.277344 "/>
<path style=" stroke:none;fill-rule:nonzero;fill:rgb(100%,100%,100%);fill-opacity:1;" d="M 58.875 105.175781 L 69.875 105.175781 L 69.875 121.175781 L 58.875 121.175781 Z M 58.875 105.175781 "/>
<g style="fill:rgb(100%,0%,0%);fill-opacity:1;">
  <use xlink:href="#glyph0-1" x="58.875" y="117.551758"/>
</g>
</g>
</svg>

<svg xmlns="http://www.w3.org/2000/svg" xmlns:xlink="http://www.w3.org/1999/xlink" width="300pt" height="300pt" viewBox="0 0 300 300"><defs><symbol overflow="visible"><path d="M.64 2.297v-11.47h6.5v11.47zm.735-.72h5.047V-8.436H1.375zm0 0"/></symbol><symbol overflow="visible" id="a"><path d="M5.125-8.61c-.938 0-1.684.352-2.234 1.047-.542.688-.812 1.633-.812 2.83 0 1.198.27 2.147.813 2.842.55.687 1.297 1.03 2.235 1.03.926 0 1.66-.343 2.203-1.03.55-.696.828-1.645.828-2.844 0-1.196-.277-2.14-.828-2.829-.543-.695-1.277-1.046-2.203-1.046zm0-1.046c1.32 0 2.38.45 3.172 1.344.8.898 1.203 2.09 1.203 3.578 0 1.5-.402 2.7-1.203 3.593C7.504-.255 6.445.186 5.125.186c-1.336 0-2.402-.44-3.203-1.328C1.13-2.036.734-3.235.734-4.735c0-1.49.395-2.68 1.188-3.579.8-.894 1.867-1.343 3.203-1.343zm0 0"/></symbol><symbol overflow="visible" id="b"><path d="M1.28-9.484H3l4.203 7.937v-7.937h1.25V0H6.72L2.515-7.922V0H1.28zm0 0"/></symbol><symbol overflow="visible" id="c"><path d="M1.28-9.484h1.282v3.89H7.22v-3.89H8.5V0H7.22v-4.516H2.562V0H1.28zm0 0"/></symbol></defs><g><path fill="#fff" d="M0 0h300v300H0z"/><path d="M176.004 252.246l1.187-33.738M177.19 218.508l-28.624-17.9M148.566 200.61l1.184-33.74M149.75 166.87l-14.313-8.948" stroke-width="1.2" stroke="#000" stroke-miterlimit="10" fill="none"/><path d="M135.438 157.922l-14.313-8.95M121.125 148.973l.594-16.87" stroke-width="1.2" stroke="#f00" stroke-miterlimit="10" fill="none"/><path d="M121.72 132.102l.593-16.868" stroke-width="1.2" stroke="#000" stroke-miterlimit="10" fill="none"/><path d="M116.125 140.973h11v16h-11zm0 0" fill="#fff"/><use xlink:href="#a" x="116.125" y="153.349" fill="#f00"/><path d="M122.313 115.234L93.686 97.336M123.664 106.707L100.762 92.39M152.125 99.39l-29.813 15.844M93.688 97.336l1.187-33.738M93.688 97.336l-14.907 7.922" stroke-width="1.2" stroke="#000" stroke-miterlimit="10" fill="none"/><path d="M78.78 105.258l-14.905 7.918" stroke-width="1.2" stroke="#f00" stroke-miterlimit="10" fill="none"/><path d="M94.875 63.598l29.813-15.844M101.582 69.027l23.852-12.675M124.688 47.754l28.624 17.898M153.313 65.652l-1.188 33.74M145.254 68.746l-.95 26.992M153.313 65.652l29.812-15.843" stroke-width="1.2" stroke="#000" stroke-miterlimit="10" fill="none"/><path d="M211.75 67.707m-2.227-2.008l-.554.882m-1.677-2.89l-1.106 1.77m-1.12-3.778l-1.66 2.652m-.57-4.66l-2.212 3.535m-.016-5.542l-2.766 4.418m.535-6.426l-3.317 5.305m1.09-7.317l-3.872 6.192m1.642-8.2l-4.422 7.075m2.195-9.082l-4.976 7.957m2.745-9.965l-5.528 8.84m3.297-10.848l-6.078 9.727m5.13-10.586l-6.317 10.105" stroke="#000" stroke-miterlimit="10" fill="none"/><path d="M211.75 67.707l31.305-12.637" stroke-width="1.2" stroke="#000" stroke-miterlimit="10" fill="none"/><path d="M214.098 101.387l-1.172-16.84" stroke-width="1.2" stroke="#00f" stroke-miterlimit="10" fill="none"/><path d="M212.926 84.547l-1.176-16.84M243.055 55.07l10.847 12.934" stroke-width="1.2" stroke="#000" stroke-miterlimit="10" fill="none"/><path d="M253.902 68.004l10.848 12.933M264.75 80.938L255.8 95.25" stroke-width="1.2" stroke="#00f" stroke-miterlimit="10" fill="none"/><path d="M255.8 95.25l-8.948 14.313" stroke-width="1.2" stroke="#000" stroke-miterlimit="10" fill="none"/><path d="M254.75 72.938h20v16h-20zm0 0" fill="#fff"/><g fill="#00f"><use xlink:href="#b" x="254.75" y="85.313"/><use xlink:href="#c" x="264.72" y="85.313"/></g><path d="M243.168 111.05l6.32 15.653" stroke-width="1.2" stroke="#000" stroke-miterlimit="10" fill="none"/><path d="M249.488 126.703l6.32 15.652" stroke-width="1.2" stroke="#f00" stroke-miterlimit="10" fill="none"/><path d="M250.535 108.074l6.32 15.653" stroke-width="1.2" stroke="#000" stroke-miterlimit="10" fill="none"/><path d="M256.855 123.727l6.32 15.652" stroke-width="1.2" stroke="#f00" stroke-miterlimit="10" fill="none"/><path d="M246.852 109.563l-16.375-4.09" stroke-width="1.2" stroke="#000" stroke-miterlimit="10" fill="none"/><path d="M230.477 105.473l-16.38-4.086" stroke-width="1.2" stroke="#00f" stroke-miterlimit="10" fill="none"/><path d="M254.492 132.867h11v16h-11zm0 0" fill="#fff"/><use xlink:href="#a" x="254.492" y="145.243" fill="#f00"/><path d="M204.098 93.387h20v16h-20zm0 0" fill="#fff"/><g fill="#00f"><use xlink:href="#b" x="204.098" y="105.763"/><use xlink:href="#c" x="214.067" y="105.763"/></g><path d="M63.875 113.176l-14.313-8.95" stroke-width="1.2" stroke="#f00" stroke-miterlimit="10" fill="none"/><path d="M49.563 104.227l-14.313-8.95" stroke-width="1.2" stroke="#000" stroke-miterlimit="10" fill="none"/><path d="M58.875 105.176h11v16h-11zm0 0" fill="#fff"/><use xlink:href="#a" x="58.875" y="117.552" fill="#f00"/></g></svg>
